assets/icons/utility/section.svg

<?xml version="1.0"?><svg xmlns="http://www.w3.org/2000/svg" width="52" height="52" viewBox="0 0 52 52"><title></title><desc></desc><path fill-rule="evenodd" clip-rule="evenodd" fill="#fff" d="m47.6 29.2h-8c-1.3 0-2.4-1.1-2.4-2.4v-1.6c0-1.3 1.1-2.4 2.4-2.4h8c1.3 0 2.4 1.1 2.4 2.4v1.6c0 1.3-1.1 2.4-2.4 2.4"></path><path fill-rule="evenodd" clip-rule="evenodd" fill="#fff" d="m30 29.2h-8c-1.3 0-2.4-1.1-2.4-2.4v-1.6c0-1.3 1.1-2.4 2.4-2.4h8c1.3 0 2.4 1.1 2.4 2.4v1.6c0 1.3-1.1 2.4-2.4 2.4"></path><path fill-rule="evenodd" clip-rule="evenodd" fill="#fff" d="m12.4 29.2h-8c-1.4 0-2.4-1.1-2.4-2.4v-1.6c0-1.3 1.1-2.4 2.4-2.4h8c1.3 0 2.4 1.1 2.4 2.4v1.6c0 1.3-1.1 2.4-2.4 2.4"></path><path fill-rule="evenodd" clip-rule="evenodd" fill="#fff" d="m43.6 34h-35.2c-1.8 0-3.2 1.4-3.2 3.2v8c0 1.8 1.4 3.2 3.2 3.2h35.2c1.8 0 3.2-1.4 3.2-3.2v-8c0-1.8-1.5-3.2-3.2-3.2z m-1.6 8.8c0 0.4-0.4 0.8-0.8 0.8h-30.4c-0.4 0-0.8-0.4-0.8-0.8v-3.2c0-0.4 0.4-0.8 0.8-0.8h30.4c0.4 0 0.8 0.4 0.8 0.8v3.2z m1.6-39.2h-35.2c-1.8 0-3.2 1.4-3.2 3.2v8c0 1.8 1.4 3.2 3.2 3.2h35.2c1.8 0 3.2-1.4 3.2-3.2v-8c0-1.8-1.5-3.2-3.2-3.2z m-1.6 8.8c0 0.4-0.4 0.8-0.8 0.8h-30.4c-0.4 0-0.8-0.4-0.8-0.8v-3.2c0-0.4 0.4-0.8 0.8-0.8h30.4c0.4 0 0.8 0.4 0.8 0.8v3.2z"></path></svg>

<svg xmlns="http://www.w3.org/2000/svg" x="0px" y="0px"
	 width="52px" height="52px" viewBox="0 0 52 52" enable-background="new 0 0 52 52" xml:space="preserve">
<path fill-rule="evenodd" clip-rule="evenodd" fill="#FFFFFF" d="M47.6,29.2h-8c-1.3,0-2.4-1.1-2.4-2.4v-1.6
	c0-1.3,1.1-2.4,2.4-2.4h8c1.3,0,2.4,1.1,2.4,2.4v1.6C50,28.1,48.9,29.2,47.6,29.2"/>
<path fill-rule="evenodd" clip-rule="evenodd" fill="#FFFFFF" d="M30,29.2h-8c-1.3,0-2.4-1.1-2.4-2.4v-1.6
	c0-1.3,1.1-2.4,2.4-2.4h8c1.3,0,2.4,1.1,2.4,2.4v1.6C32.4,28.1,31.3,29.2,30,29.2"/>
<path fill-rule="evenodd" clip-rule="evenodd" fill="#FFFFFF" d="M12.4,29.2h-8C3,29.2,2,28.1,2,26.8v-1.6
	c0-1.3,1.1-2.4,2.4-2.4h8c1.3,0,2.4,1.1,2.4,2.4v1.6C14.8,28.1,13.7,29.2,12.4,29.2"/>
<path fill-rule="evenodd" clip-rule="evenodd" fill="#FFFFFF" d="M43.6,34H8.4c-1.8,0-3.2,1.4-3.2,3.2v8c0,1.8,1.4,3.2,3.2,3.2h35.2
	c1.8,0,3.2-1.4,3.2-3.2v-8C46.8,35.4,45.3,34,43.6,34z M42,42.8c0,0.4-0.4,0.8-0.8,0.8H10.8c-0.4,0-0.8-0.4-0.8-0.8v-3.2
	c0-0.4,0.4-0.8,0.8-0.8h30.4c0.4,0,0.8,0.4,0.8,0.8V42.8z"/>
<path fill-rule="evenodd" clip-rule="evenodd" fill="#FFFFFF" d="M43.6,3.6H8.4C6.6,3.6,5.2,5,5.2,6.8v8c0,1.8,1.4,3.2,3.2,3.2h35.2
	c1.8,0,3.2-1.4,3.2-3.2v-8C46.8,5,45.3,3.6,43.6,3.6z M42,12.4c0,0.4-0.4,0.8-0.8,0.8H10.8c-0.4,0-0.8-0.4-0.8-0.8V9.2
	c0-0.4,0.4-0.8,0.8-0.8h30.4c0.4,0,0.8,0.4,0.8,0.8V12.4z"/>
</svg>
